!!!COA:	Josquin des Prez
!!!CDT:	~1450-1521/08/27
!!!COA2: Bauldeweyn
!!!COA3: Mouton
!!!OPR:	Missa Da pacem
!!!ONM:	2
!!!OTL:	Gloria
!!!AGN:	Mass; Gloria
!!!SCT:	NJE 3.2
!!!SCA:	New Josquin Edition 3.2
!!!voices: 4
!!!voices-OPR:	4
**kern	**kern	**kern	**kern
*staff4	*staff3	*staff2	*staff1
*Ivox	*Ivox	*Ivox	*Ivox
*I"Bassus	*I"Tenor	*I"Altus	*I"Superius
*I'B	*I'T	*I'A	*I'S
*>[A,B]	*>[A,B]	*>[A,B]	*>[A,B]
*>Gloria[A]	*>Gloria[A]	*>Gloria[A]	*>Gloria[A]
*>QuiTollis[B]	*>QuiTollis[B]	*>QuiTollis[B]	*>QuiTollis[B]
*clefF4	*clefGv2	*clefGv2	*clefG2
*>A	*>A	*>A	*>A
*k[b-]	*k[b-]	*k[b-]	*k[b-]
*M3/1	*M3/1	*M3/1	*M3/1
*met(O)	*met(O)	*met(O)	*met(O)
=1-	=1-	=1-	=1-
!!section: Et in terra pax
!!!OMD: Et in terra pax
!!
0.r	0.r	0G	0.r
.	.	1F	.
=2	=2	=2	=2
0.r	0.r	2.G/	0g
.	.	4A/	.
.	.	2B-\	.
.	.	2G/	.
.	.	1A	1f
=3	=3	=3	=3
0G	0.r	4G/	2.g/
.	.	4A/	.
.	.	4B-\	.
.	.	4c\	4a/
.	.	2d\	2b-\
.	.	2e\	2g/
1F	.	2f\	1a
.	.	[2d\	.
=4	=4	=4	=4
2.G\	0.r	2d\]	0g
.	.	2e\	.
4A\	.	.	.
2B-\	.	2d\	.
2G\	.	1g	.
1A	.	.	2r
.	.	2f#i\	[2cc\
=5	=5	=5	=5
1G	[0.G	1g	2cc\]
.	.	.	2b-\
0C	.	1e	1cc
.	.	2r	[1g
.	.	2c\	.
=6	=6	=6	=6
2r	0.G]	2c\	1g]
2C/	.	2c\	.
2C/	.	2e-\	2r
2C/	.	2e-i\	2g/
2E-\	.	1B-	2g/
2E-i\	.	.	2g/
=7	=7	=7	=7
1BB-	[0.F	2r	2b-\
.	.	2B-\	2b-\
2r	.	2B-\	1f
2BB-/	.	2B-\	.
2BB-/	.	[1d	2r
2BB-/	.	.	2f/
=8	=8	=8	=8
0D	0.F]	1d]	2f/
.	.	.	2f/
.	.	2r	2a/
.	.	2A/	2f/
2r	.	2d\	2b-\
2BB-/	.	2d\	2b-\
=9	=9	=9	=9
2E-i\	[0.G	1B-	2.g/
2E-i\	.	.	.
.	.	.	4f/
2C/	.	2c\	2e/
2BB-/	.	2.d\	2d/
1C	.	.	1e
.	.	4c\	.
.	.	[2c\	.
=10	=10	=10	=10
1GG	0.G]	2c\]	1d
.	.	2Bni\	.
1.C	.	0c	1.e
2C/	.	.	2e/
=11	=11	=11	=11
2BB-/	0.B-	1r	2d/
1E-i	.	.	1g
.	.	1G	.
4D\	.	.	4f/
4C/	.	.	4e/
1D	.	1F	2f/
.	.	.	2d/
=12	=12	=12	=12
1C	0.c	1G	4e/
.	.	.	4c/
.	.	.	2.cc\
1E-i	.	1g	.
.	.	.	4b-\
.	.	.	1b-
1F	.	1f	.
.	.	.	2a/
=13	=13	=13	=13
1G	0.B-	2d\	0b-
.	.	2g\	.
2r	.	2g\	.
2G\	.	2g\	.
2G\	.	2d\	1r
2G\	.	2e\	.
=14	=14	=14	=14
2D\	0.r	2.f\	0.r
2.F\	.	.	.
.	.	4e\	.
.	.	4d\	.
4E\	.	4c\	.
4D\	.	1c	.
4C/	.	.	.
1D	.	.	.
.	.	2Bni\	.
=15	=15	=15	=15
0C	0.r	1c	2r
.	.	.	2g/
.	.	2r	2g/
.	.	1c	2g/
1r	.	.	2e/
.	.	[2d\	[2f/
=16	=16	=16	=16
1r	0A	2d\]	2f/]
.	.	4c\	4e/
.	.	4B-\	4d/
1r	.	1c	1e
1BB-	[1B-	2.d\	1d
.	.	4c\	.
=17	=17	=17	=17
1BB-	1B-]	2.B-\	2r
.	.	.	2d/
.	.	8A/L	.
.	.	8G/J	.
0AA	0c	4F/	2f/
.	.	4D/	.
.	.	1G	2g/
.	.	.	1a
.	.	2F#i/	.
=18	=18	=18	=18
2GG/	1.B-	1G	1g
1G	.	.	.
.	.	1r	1.dd
2F\	4A/	.	.
.	4G/	.	.
[1D	2A/	[1f	.
.	[2d\	.	4cc\
.	.	.	4b-\
=19	=19	=19	=19
2D\]	2d\]	2f\]	4a/
.	.	.	4g/
1F	2c\	2f\	1a
.	2A/	2d\	.
2E-i\	1B-	2e-i\	2g/
2BB-/	.	4f\	2d/
.	.	4e-i\	.
[2D\	2A/	4d\	[2f/
.	.	4c\	.
=20	=20	=20	=20
2D\]	2F/	2B-\	2f/]
2C/	1A	1.c	2e/
2AA/	.	.	2c/
1C	2G/	.	1e
.	2E/	2A/	.
2BB-/	2F/	[2B-\	2d/
=21	=21	=21	=21
2GG/	2G/	2B-\]	2e/
1D	2A/	2A/	2f/
.	2B-\	2d\	2d/
2C/	2c\	2e\	1g
2D\	1A	2d\	.
2F\	.	[2c\	2f/
=22	=22	=22	=22
1E-	0.G	2c\]	1.g
.	.	2B-\	.
1C	.	1.c	.
.	.	.	4f/
.	.	.	4e/
2r	.	.	1e
[2C/	.	4B-\	.
.	.	4A/	.
=23	=23	=23	=23
2C/]	0.r	4G/	2r
.	.	4A/	.
2BB-/	.	2B-\	2d/
2C/	.	2A/	2e/
2BB-/	.	2.B-\	2d/
1C	.	.	1e
.	.	4A/	.
.	.	4A/	.
.	.	4G/	.
=24	=24	=24	=24
2BB-/	0B-	1B-	2d/
1E-i	.	.	1g
.	.	2r	.
2D\	.	2d\	2f/
2E-i\	1B-	2G/	2g/
2D\	.	2d\	2f/
=25	=25	=25	=25
2E-i\	1B-	2B-\	2g/
2D\	.	2d\	2.f/
2C/	2A/	2e-i\	.
.	.	.	4e-i/
2E-i\	2G/	2c\	1g
1D	1A	1d	.
.	.	.	2f#i/
=26	=26	=26	=26
0GG	0.G	1.d	1g
.	.	.	1.g
.	.	2d\	.
[1C	.	1e-i	.
.	.	.	2g/
=27	=27	=27	=27
2C/]	0.r	2.e-i\	2g/
2C/	.	.	2g/
.	.	4d\	.
1C	.	2c\	0e-i
.	.	1B-	.
1C	.	.	.
.	.	2A/	.
=28	=28	=28	=28
2BB-/	0.B-	1B-	2d/
2E-i\	.	.	2g/
2D\	.	1r	2f/
1E-i	.	.	1g
.	.	1r	.
4D\	.	.	4f/
4C/	.	.	4e/
=29	=29	=29	=29
2BB-/	0.B-	2r	2f/
2E-i\	.	2G/	2g/
2D\	.	2F/	1r
1E-i	.	1G	.
.	.	.	2r
2D\	.	2F/	2d/
=30	=30	=30	=30
2C/	0.c	2G/	2e/
1F	.	1A	1c
4E\	.	4G/	2.cc\
4D\	.	4F/	.
1E	.	1G	.
.	.	.	4b-\
.	.	.	4a/
.	.	.	4g/
=31	=31	=31	=31
1.D	0.d	2A/	1f
.	.	2.B-\	.
.	.	.	1a
.	.	4A/	.
2C/	.	1A	.
1BB-	.	.	1b-
.	.	2G/	.
=32	=32	=32	=32
1AA	0.c	1A	1.cc
0C	.	2.G/	.
.	.	.	4b-\
.	.	4F/	4a/
.	.	1E	2g/
.	.	.	2e/
=33	=33	=33	=33
1BB-	0.d	0D	1f
1GG	.	.	1g
[1G	.	1r	[1b-
=34	=34	=34	=34
2G\]	0.e-i	1G	2b-\]
2F\	.	.	2a/
2E-i\	.	1B-	1g
2D\	.	.	.
1C	.	1c	1g
=35	=35	=35	=35
1.D	0d	1A	0f
.	.	1.B-	.
4C/	.	.	.
4BB-/	.	.	.
[1BB-	1r	.	[1b-
.	.	4A/	.
.	.	4G/	.
=36	=36	=36	=36
1BB-]	2r	1F	2b-\]
.	2d\	.	4a/
.	.	.	4g/
4BB-/	1d	2r	2.f/
4C/	.	.	.
4D\	.	1f	.
4E\	.	.	4g/
1F	1c	.	1a
.	.	2f\	.
=37	=37	=37	=37
2G\	2B-\	2d\	2b-\
2F\	2A/	1f	2.cc\
1G	1B-	.	.
.	.	.	4b-\
.	.	2e\	1b-
1F	1c	1f	.
.	.	.	2a/
=38	=38	=38	=38
1BB-	0B-	1f	1.b-
1.BB-	.	1r	.
.	.	.	2b-\
.	1r	[1d	[1b-
2BB-/	.	.	.
=39	=39	=39	=39
2.BB-/	1B-	2d\]	2b-\]
.	.	2d\	4a/
4C/	.	.	4g/
2.D\	1B-	1d	2.f/
4E\	.	.	4g/
1F	1A	2c\	4a/
.	.	.	4b-\
.	.	[2f\	2cc\
=40	=40	=40	=40
1G	1B-	2f\]	2b-\
.	.	2d\	1g
1C	1c	1e-	.
.	.	.	2a/
1G	1B-	1d	[1b-
=41	=41	=41	=41
1E-i	2.G/	2e-i\	2b-\]
.	.	2c\	4a/
.	4A/	.	4g/
2D\	2B-\	2d\	4f/
.	.	.	4d/
2C/	2c\	2e-i\	1g
1D	1A	1d	.
.	.	.	2f#i/
=42	=42	=42	=42
2r	1G	1B-	1g
1E-i	.	.	.
.	1r	2c\	2r
2D\	.	2d\	2f/
2E-i\	1r	2c\	2g/
2D\	.	2d\	2f/
=43	=43	=43	=43
1E-i	2r	1G	1g
.	1B-	.	.
0D	.	0d	1.f
.	2A/	.	.
.	2B-\	.	.
.	2A/	.	[2a/
=44	=44	=44	=44
2r	1B-	2r	4a/]
.	.	.	4g/
2BB-/	.	2d\	1g
2C/	1A	2e-i\	.
2D\	.	2d\	2f#i/
[1E-i	1r	1B-	1g
=45	=45	=45	=45
2E-\]	1r	2c\	2r
2D\	.	2d\	2f/
2E-i\	1r	2c\	2g/
2D\	.	2d\	2f/
1E-i	2r	1G	1g
.	[2B-\	.	.
=46	=46	=46	=46
0D	2B-\]	0.d	0f
.	2A/	.	.
.	2B-\	.	.
.	2A/	.	.
2r	1B-	.	2r
2BB-/	.	.	2d/
=47	=47	=47	=47
2C/	2A/	2r	2e-i/
2D\	2F/	2f\	1d
1E-i	2.G/	2e-i\	.
.	.	2g\	2c/
.	4A/	.	.
2D\	1B-	2f\	2d/
2BB-/	.	2d\	2dd\
=48	=48	=48	=48
2C/	2A/	2e-\	2cc\
2D\	2F/	1d	1b-
1E-i	2.G/	.	.
.	.	2c\	4a/
.	4A/	.	4g/
[1D	1B-	[1d	2f/
.	.	.	4d/
.	.	.	4e/
=49	=49	=49	=49
1D]	2A/	1d]	4f/
.	.	.	4g/
.	2F/	.	4a/
.	.	.	4b-\
2r	1B-	2r	2a/
2BB-/	.	2d\	1g
2C/	1A	2e-i\	.
2D\	.	2d\	2f#i/
=50	=50	=50	=50
1.E-i	[0.Gl	2r	[0.gl
.	.	2B-\	.
.	.	2c\	.
4D\	.	2d\	.
4C/	.	.	.
[1Cl	.	[1e-i	.
=51	=51	=51	=51
0.C]	0.G]	2e-\]	0.g]
.	.	4d\	.
.	.	4c\	.
.	.	0cl	.
!!LO:LB:i:g=z
=52||	=52||	=52||	=52||
*>B	*>B	*>B	*>B
!!section: Qui tollis
!!!OMD: Qui tollis
*M2/1	*M2/1	*M2/1	*M2/1
*met(C|)	*met(C|)	*met(C|)	*met(C|)
0C	[0G	0c	0r
=53	=53	=53	=53
1C	0G_	1e	0g
1C	.	1e	.
=54	=54	=54	=54
1GG	0G]	1d	1g
1C	.	1c	1e
=55	=55	=55	=55
0D	0F	1A	1f
.	.	1B-	1d
=56	=56	=56	=56
0C	0G	0c	1e
.	.	.	1e
=57	=57	=57	=57
1.BB-	0B-	1F	0d
.	.	[1G	.
4AA/	.	.	.
4GG/	.	.	.
=58	=58	=58	=58
0AA	0c	2G/]	0r
.	.	4F#i/	.
.	.	4E/	.
.	.	1F#i	.
=59	=59	=59	=59
1GG	1B-	1G	0d
[1G	2.B-\	2.G/	.
.	4c\	4A/	.
=60	=60	=60	=60
2G\]	2d\	2B-\	2d/
2G\	2B-\	1G	1g
2E\	2c\	.	.
2F\	2A/	2c\	4f/
.	.	.	4e/
=61	=61	=61	=61
2G\	2B-\	2B-\	2d/
4F\	2c\	2G/	2e/
4E\	.	.	.
2D\	2d\	2.A/	2f/
2C/	[2e-i\	.	[2g/
.	.	4G/	.
=62	=62	=62	=62
1G	4e-\]	4B-\	4g/]
.	4d\	4c\	4f/
.	4c\	4d\	1b-
.	4B-\	4e\	.
1F	1c	1f	.
.	.	.	2a/
=63	=63	=63	=63
2r	0B-	1d	0b-
2G\	.	.	.
2G\	.	2r	.
2G\	.	2d\	.
=64	=64	=64	=64
2D\	0r	2d\	2r
2D\	.	2d\	2a/
2F\	.	2A/	2a/
2F\	.	2A/	2a/
=65	=65	=65	=65
0C	0r	2c\	2e/
.	.	2c\	2e/
.	.	2.G/	2g/
.	.	.	2g/
.	.	4A/	.
=66	=66	=66	=66
1BB-	0r	4B-\	1d
.	.	4c\	.
.	.	1d	.
1E-i	.	.	1r
.	.	2c\	.
=67	=67	=67	=67
0D	[0A	0d	1r
.	.	.	[1a
=68	=68	=68	=68
1.D	0A]	1r	2a/]
.	.	.	2a/
.	.	[1d	1f
2D\	.	.	.
=69	=69	=69	=69
1BB-	[0B-	2d\]	1f
.	.	2d\	.
1BB-	.	1B-	1b-
=70	=70	=70	=70
1E-i	0B-]	1B-	1b-
1E-i	.	1e-	1g
=71	=71	=71	=71
1C	[0c	1e-i	1g
1C	.	1c	[1cc
=72	=72	=72	=72
0F	0c]	1c	1cc]
.	.	[1f	1f
=73	=73	=73	=73
0BB-	0B-	1f]	2r
.	.	.	2.b-\
.	.	1B-	.
.	.	.	4a/
.	.	.	[2g/
=74	=74	=74	=74
1C	0A	1e-i	2g/]
.	.	.	4f/
.	.	.	4e-i/
1D	.	1d	1f
=75	=75	=75	=75
1E-i	2G/	2.B-\	1g
.	1B-	.	.
.	.	4c\	.
2D\	.	2d\	2r
2C/	2A/	[2e-i\	2cc\
=76	=76	=76	=76
2.E-i\	2G/	4e-\]	2b-\
.	.	4d\	.
.	1B-	4B-\	1dd
4D\	.	4c\	.
4BB-/	.	[1d	.
4C/	.	.	.
[2D\	2A/	.	4cc\
.	.	.	4b-\
=77	=77	=77	=77
2D\]	2F/	1d]	2a/
2BB-/	1B-	.	1g
2E-i\	.	2G/	.
[2C/	2A/	[2c\	2a/
=78	=78	=78	=78
2C/]	2G/	2c\]	2e/
2BB-/	2B-\	2d\	1g
2C/	1A	2e-i\	.
2D\	.	2d\	2f#i/
=79	=79	=79	=79
*M3/1	*M3/1	*M3/1	*M3/1
*met(3)	*met(3)	*met(3)	*met(3)
0.GG	0G	1.B-	0g
.	.	2c\	.
.	1r	1d	1r
=80	=80	=80	=80
0.r	0.r	1.G	0.b-
.	.	2A/	.
.	.	2B-\	.
.	.	2c\	.
=81	=81	=81	=81
0.r	0.r	1d	1b-
.	.	1e	1g
.	.	1d	[1b-
=82	=82	=82	=82
0.r	0.r	0g	1b-]
.	.	.	0a
.	.	1f#i	.
=83	=83	=83	=83
1.GG	0B-	0g	0g
2AA/	.	.	.
2BB-/	1B-	1r	1r
2C/	.	.	.
=84	=84	=84	=84
1D	1B-	0.r	0.r
1E	1G	.	.
1D	[1B-	.	.
=85	=85	=85	=85
1.G	1B-]	0.r	0.r
.	0A	.	.
4F#i\	.	.	.
4E\	.	.	.
1F#i	.	.	.
=86	=86	=86	=86
0.G	0G	1r	1r
.	.	1r	1r
.	1r	1g	1b-
=87	=87	=87	=87
0.r	0.r	1.g	1.b-
.	.	2e\	2cc\
.	.	2f\	2dd\
.	.	2g\	2b-\
=88	=88	=88	=88
0.r	0.r	2e\	2cc\
.	.	2f\	2dd\
.	.	1.g	1.ee-i
.	.	2f\	2dd\
=89	=89	=89	=89
0.r	0.r	1d	0dd
.	.	0e-i	.
.	.	.	1cc
=90	=90	=90	=90
1r	1r	0.d	0dd
1r	1r	.	.
1G	1B-	.	1r
=91	=91	=91	=91
1.G	1.B-	0.r	0.r
2E\	2c\	.	.
2F\	2d\	.	.
2G\	2B-\	.	.
=92	=92	=92	=92
2E\	2c\	0.r	0.r
2F\	2d\	.	.
1.G	1.e-i	.	.
2F\	2d\	.	.
=93	=93	=93	=93
1D	0d	0.r	0.r
0E-i	.	.	.
.	1c	.	.
=94	=94	=94	=94
1.D	0d	1f	1.a
.	.	2e\	.
2E\	.	2d\	2g/
1F	1r	1c	1a
=95	=95	=95	=95
1.BB-	0d	0B-	1.b-
2C/	.	.	2a/
1D	[1d	1A	1f
=96	=96	=96	=96
1GG	1d]	1B-	1g
0AA	0c	1c	0e
.	.	1A	.
=97	=97	=97	=97
1BB-	1B-	1d	1d
1C	1A	1c	1e-i
[1BB-	1B-	[1f	2d/
.	.	.	2B-/
=98	=98	=98	=98
1BB-]	1d	0.f]	0b-
0F	0c	.	.
.	.	.	1a
=99	=99	=99	=99
0BB-	0.B-	0d	0.b-
1GG	.	1d	.
=100	=100	=100	=100
1BB-	1r	1d	1r
1C	1r	1e	1r
1D	1B-	1d	1f
=101	=101	=101	=101
1E	1B-	1G	1g
1F	1A	1c	1a
1G	1B-	1B-	1d
=102	=102	=102	=102
0C	1.c	0G	0e
.	2B-\	.	.
1D	1A	1d	1d
=103	=103	=103	=103
1E	1G	1c	1.g
0D	0A	0d	.
.	.	.	2f#i/
.	.	.	2f#i/
.	.	.	2e/
=104	=104	=104	=104
*M2/1	*M2/1	*M2/1	*M2/1
*met(C|)	*met(C|)	*met(C|)	*met(C|)
1GG	1G	1d	2g/
.	.	.	2b-\
1r	2r	1f	2a/
.	2d\	.	2f/
=105	=105	=105	=105
0r	2c\	2e\	2a/
.	2A/	2c\	2a/
.	2B-\	2d\	2g/
.	2G/	2e\	2g/
=106	=106	=106	=106
2r	2B-\	2d\	1g
2G\	2B-\	2d\	.
2F\	1A	1d	2r
2D\	.	.	2f/
=107	=107	=107	=107
2E-\	2r	1r	2g/
2C/	2c\	.	2e/
2E-i\	2B-\	2r	2g/
2E-i\	2G/	2c\	2g/
=108	=108	=108	=108
1D	2A/	1d	1f
.	2F/	.	.
2r	1A	2c\	2r
2F\	.	2A/	2f/
=109	=109	=109	=109
2E-i\	1G	2B-\	2g/
2C/	.	2c\	2e/
2D\	2r	2A/	2f/
2BB-/	2B-\	[2d\	2d/
=110	=110	=110	=110
1D	2.A/	2d\]	2f/
.	.	2B-\	2f/
.	4F/	.	.
1C	2G/	1c	1e
.	2E/	.	.
=111	=111	=111	=111
2r	2G/	2B-\	2d/
2E-i\	2G/	2G/	2c/
2D\	1F	2A/	1d
2BB-/	.	2B-\	.
=112	=112	=112	=112
2C/	1A	2A/	2r
2AA/	.	1c	1e
2C/	1G	.	.
2C/	.	2c\	4d/
.	.	.	4c/
=113	=113	=113	=113
2BB-/	1B-	0d	2d/
2GG/	.	.	1g
1D	1A	.	.
.	.	.	2f#i/
=114	=114	=114	=114
1GG	2r	1B-	1g
.	1d	.	.
1G	.	2r	2r
.	2B-\	[2G/	[2g/
=115	=115	=115	=115
2E\	2c\	2G/]	2g/]
2F\	2d\	2A/	2f/
2G\	2B-\	2B-\	2d/
2E\	[2c\	2G/	2e/
=116	=116	=116	=116
1F	2c\]	2A/	2c/
.	2A/	1F	1f
2D\	2B-\	.	.
2E\	2c\	2G/	2e/
=117	=117	=117	=117
2F\	2A/	2A/	2c/
2D\	1B-	2F/	2d/
1E-i	.	2G/	2B-/
.	2G/	[2E-/	[2e-/
=118	=118	=118	=118
2C/	2A/	2E-/]	2e-/]
2D\	2B-\	2F/	2d/
2E-i\	2G/	2G/	2B-/
2C/	[2A/	2Eni/	2c/
=119	=119	=119	=119
1D	2A/]	2F/	2A/
.	2F/	2D/	2a/
2BB-/	2G/	2d\	2b-\
2C/	[2A/	2e\	[2a/
=120	=120	=120	=120
2.D\	4A/]	2f\	4a/]
.	4F/	.	4g/
.	2G/	2d\	1g
4BB-/	.	.	.
2C/	1A	2e-i\	.
2D\	.	[2d\	2f#i/
=121	=121	=121	=121
1BB-	[0G	2d\]	[0g
.	.	2B-\	.
1C	.	[1e-i	.
=122	=122	=122	=122
0GG	0G]	2e-\]	0g]
.	.	2d\	.
.	.	1d	.
==	==	==	==
*-	*-	*-	*-
!!!RDF**kern: l=long note in original notation
!!!RDF**kern: i=editorial accidental
!!!ENC: Victoria Chang 2011/04/18
!!!END: 2011/04/18/
!!!EED:	Jesse Rodin
!!!EEV:	2011/09/08/
!!attribution-level@Jos: 4 (questionable)
!!!ONB:	Translated from MusicXML and edited on 2011/09/08/ by Craig Sapp
!!muse2ps: T^@{OPR}^u^@{ONM}{. }@{OTL}^C^Bauldeweyn/Josquin?/Mouton?\n@{SCT}^i2I100v85,90,85,150c100Q16
